X:0
T:Knights of Snowdon
L:1/8
M:6/8
K:Dmaj
f2 f fed |\
c2 A A3 |\
d2 d def |\
g2 e e2 d/e/ |\
f2 f fed |\
c2 A ABc |\
d2 d ede |\
f2 d d3 :|
e2 e e2 e |\
efg gab |\
bag fed |\
c2 A A3 |\
e2 e e2 e |\
efg gab |\
bag fed |\
cBA GFE |\
DEF F2 F |\
FGA A2 A |\
d2 B d2 B |\
A2 G F2 E |\
DEF F2 F |\
FGA A2 A |\
d2 B A2 G |\
F2 D D3 :|
